packages/icons/svgs/solid/bell-solid.svg

<svg width="12" height="12" viewBox="0 0 12 12" xmlns="http://www.w3.org/2000/svg"><path d="M7.5 10.5h-3c0 .825.675 1.5 1.5 1.5s1.5-.675 1.5-1.5Zm3.75-2.25h-.375C10.35 7.725 9.75 6.975 9.75 6V3.75C9.75 1.65 8.1 0 6 0S2.25 1.65 2.25 3.75V6c0 .975-.6 1.725-1.125 2.25H.75C.3 8.25 0 8.55 0 9s.3.75.75.75h10.5c.45 0 .75-.3.75-.75s-.3-.75-.75-.75Z"/></svg>

<svg width="12" height="12" viewBox="0 0 12 12" fill="none" xmlns="http://www.w3.org/2000/svg">
<path d="M7.5 10.5H4.5C4.5 11.325 5.175 12 6 12C6.825 12 7.5 11.325 7.5 10.5Z" fill="black"/>
<path d="M11.25 8.25H10.875C10.35 7.725 9.75 6.975 9.75 6V3.75C9.75 1.65 8.1 0 6 0C3.9 0 2.25 1.65 2.25 3.75V6C2.25 6.975 1.65 7.725 1.125 8.25H0.75C0.3 8.25 0 8.55 0 9C0 9.45 0.3 9.75 0.75 9.75H11.25C11.7 9.75 12 9.45 12 9C12 8.55 11.7 8.25 11.25 8.25Z" fill="black"/>
</svg>
